X:1
T:James Gibb editions
T:O salutaris hostia - Ravanello
T:#
%%score { 1 | 2 } 3
L:1/8
Q:1/4=69
M:4/4
K:F
V:1 treble nm="Soprano I" snm="S"
V:2 treble 
V:3 treble nm="Alto" snm="A"
V:1
"^O salutaris hostia, op.66/33""^Oreste Ravanello\n (1871-1938)""^andante"!pp! c4 c2 c2 | %1
w: O sa- lu-|
 f4"^," d4 | (c2 BA G2) (AB) |"^," A2!<(! A2 c2 d2!<)! | (d2 c2 f2) e2 |[M:4/4]!>(! d6 d2!>)! | %6
w: ta- ris|ho\- * * * sti\- *|a, quae coe- li|pan\- * * dis|o- sti-|
 e4 z4 | z8 | z2!f! f4 _e2 | d4"^," d2 c2 | B3 B"^," A2 !>!A2 |!<(! !>!A2"^," c4!<)! c2 | %12
w: um:||bel- la|pre- munt ho-|sti- li- a, da|ro- bur, da|
!f! (c2 f4)"^," c2 |!>(! d4 B4 | A2 GF!>)! G4 | !fermata!F8 |] %16
w: ro\- * bur,|fer au-|xi\- * * li-|um.|
V:2
!pp! A4 A2 A2 | (A2 B3 AGF) |"^," E2 F4 E2 |"^," F2!<(! F2 G2 F2!<)! | G4 (A=B) (c2- | %5
w: O sa- lu-|ta\- * * * *|ris ho- sti-|a, quae coe- li|pan- dis * o\-|
[M:4/4]!>(! c2 =BA) B4!>)! |"^," c2!f! c4 _B2 | A4 c2 c2- | c2 BA B4 | A8 | G3 F"^," E2 !>!E2 | %11
w: * * * sti-|um: bel- la|pre- munt ho\-|* sti- * *||* li- a, da|
!<(! !>!F2"^," G4!<)! G2 |!f! (A2 c4)"^," A2 | F4 F4- | F2 (ED) E4 | !fermata!F8 |] %16
w: ro- bur, da|ro\- * bur,|fer au\-|* xi\- * li-|um.|
V:3
!pp! F4 F2 F2 | D4"^," B,4 | C4 C4 |"^," F2!<(! F2 E2 D2!<)! | E4 (D2 C2) |[M:4/4]!>(! G6!>)! G,2 | %6
w: O sa- lu-|ta- tis|ho- si-|a, quae coe- li|pan- dis *|o- sti-|
 C4 z4 | z2!f! F4 _E2 | (D4 G4- | G2 ^F=E) F2 F2 | (G=FE)D"^," ^C2 !>!C2 | %11
w: um:|bel- la|pre\- *|* * * munt ho-|sti\- * * li- a, da|
!<(! !>!D2"^," E4!<)! E2 |!f! (F2 A4)"^," F2 |!>(! B,4 D4 | C6!>)! C2 | !fermata!F8 |] %16
w: ro- bur, da|ro\- * bur,|fer au-|xi- li-|um.|

